**kern
*staff2
*tb16
=1-
*clefG2
*k[f#]
*met(c)
*M4/4
8d/
.
4B/
.
.
.
4d/
.
.
.
8r
.
4r
.
.
.
=2
4.c/
.
.
.
.
.
8d/
.
8c/L
.
8c/
.
8B/
.
8A/J
.
=3
4B/
.
.
.
4A/
.
.
.
4r
.
.
.
4d/
.
.
.
=4
!!linebreak:original
4.d/
.
.
.
.
.
8d/
.
8g/L
.
8g/
.
8f#/
.
8a/J
.
=5
4a/
.
.
.
8g/L
.
8f#/J
.
4.e/
.
.
.
.
.
8d/
.
=6
!!linebreak:original
8c#/L
.
8A#/
.
8B/
.
8G/J
.
4An/
.
.
.
4A/
.
.
.
=7
2r
.
.
.
.
.
.
.
4f#/
.
.
.
4fn/
.
.
.
=8
4.e/
.
.
.
.
.
4e/
.
.
.
8e/L
.
8e/
.
8g#/J
.
=9
!!linebreak:original
8g#/L
.
8a/J
.
4a/
.
.
.
4e/
.
.
.
4f#/
.
.
.
=10
2g/
.
.
.
.
.
.
.
4g/
.
.
.
4f#/
.
.
.
=11
!!linebreak:original
8f#/L
.
8g/J
.
4g/
.
.
.
4.e/
.
.
.
.
.
8e/
.
=12
4fn/
.
.
.
4e/
.
.
.
4d/
.
.
.
4c/
.
.
.
=13
!!linebreak:original
4.A/
.
.
.
.
.
8d/
.
2fn/
.
.
.
.
.
.
.
=14
4e/
.
.
.
8d/L
.
8c/J
.
4d/
.
.
.
4d/
.
.
.
=15
4B/
.
.
.
4r
.
.
.
==
*-
